X:1
T:Title
%%score { ( 1 3 ) | ( 2 4 ) }
L:1/8
M:6/8
K:G
V:1 treble nm="Grand Piano"
V:3 treble 
V:2 treble 
V:4 treble 
V:1
 z3 z2[Q:1/4=100] d | d2 e d2 B | [CFA]3 [B,EG]2 [D=FG] | [EG]2 [EA] [EG]2 [CE] | %4
 [B,D]3- [B,D]2 [B,D] | E2 E E2 E | [B,D]3 [B,G]2 [B,G] | B2 B A2 G | [FA]3- [FA]2 B | d2 e d2 B | %10
 [CFA]3 [B,EG]2 [D=FG] | [EA]2 [EG] [EG]2 [CE] | [EG]3- [EG]2 [CE] | [B,D]2 [B,D] [B,D]2 [B,D] | %14
 [CE]3 [EG]3 |[M:1/8] [Ec]/[Ec]/ |[M:3/4] B2 A G2 F |[M:5/8] [G,B,DG]-[G,B,DG]- [G,B,DG]3 | %18
[M:1/8] B |[M:3/4] d6 | d6 | e2 d B2 G | [FA]4- [FA][CD] | [B,D]2 [B,D] [DG]2 A | %24
 Bd- d3 [DG]/[EA]/ | [DB]3 [CA]3 |[M:5/8] [B,G]-[B,G]- [B,G]3 |] %27
V:2
 z3 z2 [G,B,G] | [G,B,G]2 [G,CG] [G,B,G]2 [G,DG] | D,3 E,2 B,, | [C,C]2 [C,C] [C,C]2 [C,G,] | %4
 [G,,G,]3- [G,,G,]2 [G,,G,] | [C,G,C]2 [C,G,C] [C,G,C]2 [C,G,C] | [G,,G,]3 [G,,G,]2 [G,,G,] | %7
 [G,D]2 [G,D] [F,A,D]2 [E,B,E] | [D,D]3- [D,D]2[K:treble] [G,DG] | %9
 [G,B,G]2 [G,CG] [G,B,G]2 [G,DG] | D,3 E,2 B,, | [C,C]2 [C,C] [C,C]2 [C,G,] | %12
 [C,G,]3- [C,G,]2 [C,G,] | [G,,G,]2 [G,,G,] [G,,G,]2 [G,,G,] | [C,G,]3 [C,G,]3 | %15
[M:1/8] [C,G,]/[C,G,]/ |[M:3/4] [D,G,D]2 [D,CD] [D,B,D]2 [D,A,D] |[M:5/8] G,,-G,,- G,,3 | %18
[M:1/8][K:treble] G |[M:3/4] G6 | G6 | [G,CG]2 [G,B,G] [G,DG]2[K:bass] [G,B,D] | %22
 [D,D]4- [D,D][D,F,] | [G,,G,]2 [G,,G,] [B,,G,]2 [D,F,D] | %24
 [G,D][G,B,G]- [G,B,G]3[K:bass] [B,,G,]/[C,G,]/ | [D,G,]3 [D,F,]3 | %26
[M:5/8] [G,,G,]-[G,,G,]- [G,,G,]3 |] %27
V:3
 x6 | x6 | x6 | x6 | x6 | x6 | x6 | x6 | x6 | x6 | x6 | x6 | x6 | x6 | x6 |[M:1/8] x |[M:3/4] x6 | %17
[M:5/8] x5 |[M:1/8] x |[M:3/4] z2 B, B,2 e | z2 B, B,2 d | x6 | x6 | x6 | x6 | x6 |[M:5/8] x5 |] %27
V:4
 x6 | x6 | x6 | x6 | x6 | x6 | x6 | x6 | x5[K:treble] x | x6 | x6 | x6 | x6 | x6 | x6 |[M:1/8] x | %16
[M:3/4] x6 |[M:5/8] x5 |[M:1/8][K:treble] x |[M:3/4] z2 G, G,2 [G,CG] | [G,B,]2 G, G,2 [G,B,G] | %21
 x5[K:bass] x | x6 | x6 | x5[K:bass] x | x6 |[M:5/8] x5 |] %27

